src/assets/icons/copy.svg

<svg width="14" height="14" viewBox="0 0 14 14" fill="none" xmlns="http://www.w3.org/2000/svg">
<g id="copy">
<path id="Vector" fill-rule="evenodd" clip-rule="evenodd" d="M4.30771 1.97436C4.30771 0.887231 5.19494 0 6.28207 0H8.07694C8.21975 0 8.35671 0.0567306 8.45769 0.157712L12.4064 4.10643C12.5074 4.20741 12.5641 4.34437 12.5641 4.48718V9.15385C12.5641 10.241 11.6769 11.1282 10.5898 11.1282H10.4103V12.0256C10.4103 13.1128 9.52304 14 8.43591 14H3.41027C2.32314 14 1.43591 13.1128 1.43591 12.0256V4.84615C1.43591 3.75903 2.32314 2.87179 3.41027 2.87179H4.30771V1.97436ZM4.30771 3.94872H3.41027C2.91791 3.94872 2.51284 4.35379 2.51284 4.84615V12.0256C2.51284 12.518 2.91791 12.9231 3.41027 12.9231H8.43591C8.92827 12.9231 9.33335 12.518 9.33335 12.0256V11.1282H6.28207C5.19494 11.1282 4.30771 10.241 4.30771 9.15385V3.94872ZM6.28207 1.07692C5.78971 1.07692 5.38463 1.482 5.38463 1.97436V9.15385C5.38463 9.64621 5.78971 10.0513 6.28207 10.0513H10.5898C11.0821 10.0513 11.4872 9.64621 11.4872 9.15385V5.02564H8.07694C7.77955 5.02564 7.53848 4.78456 7.53848 4.48718V1.07692H6.28207ZM8.6154 1.83842L10.7257 3.94872H8.6154V1.83842Z" fill="black"/>
</g>
</svg>

<svg xmlns="http://www.w3.org/2000/svg" fill="none" viewBox="0 0 14 14"><path fill="#000" fill-rule="evenodd" d="M4.308 1.974C4.308.887 5.195 0 6.282 0h1.795c.143 0 .28.057.38.158l3.95 3.948a.54.54 0 0 1 .157.381v4.667a1.98 1.98 0 0 1-1.974 1.974h-.18v.898A1.98 1.98 0 0 1 8.436 14H3.41a1.98 1.98 0 0 1-1.974-1.974v-7.18c0-1.087.887-1.974 1.974-1.974h.898zm0 1.975H3.41a.9.9 0 0 0-.897.897v7.18c0 .492.405.897.897.897h5.026a.9.9 0 0 0 .897-.897v-.898h-3.05a1.98 1.98 0 0 1-1.975-1.974zm1.974-2.872a.9.9 0 0 0-.897.897v7.18c0 .492.405.897.897.897h4.308a.9.9 0 0 0 .897-.897V5.026h-3.41a.54.54 0 0 1-.539-.539v-3.41zm2.333.761 2.11 2.11h-2.11z" clip-rule="evenodd"/></svg>
